X:656
L:1/8
M:4/4
K:G
 g | d<BB>G A>Bce | (dB)(BG) A2 ce | d<BB>G A>Bce | d<B A>B G2 G :: d | g>fga bagf | 
 edef{a} g2 fe | d<B g<e d<B g<e | d<B A>B G2 G :|

